src/assets/icons/shopCart.svg

<svg height="512pt" viewBox="0 -31 512.00033 512" width="512pt" xmlns="http://www.w3.org/2000/svg"><path d="m166 300.003906h271.003906c6.710938 0 12.597656-4.4375 14.414063-10.882812l60.003906-210.003906c1.289063-4.527344.40625-9.390626-2.433594-13.152344-2.84375-3.75-7.265625-5.964844-11.984375-5.964844h-365.632812l-10.722656-48.25c-1.523438-6.871094-7.617188-11.75-14.648438-11.75h-91c-8.289062 0-15 6.710938-15 15 0 8.292969 6.710938 15 15 15h78.960938l54.167968 243.75c-15.9375 6.929688-27.128906 22.792969-27.128906 41.253906 0 24.8125 20.1875 45 45 45h271.003906c8.292969 0 15-6.707031 15-15 0-8.289062-6.707031-15-15-15h-271.003906c-8.261719 0-15-6.722656-15-15s6.738281-15 15-15zm0 0"/><path d="m151 405.003906c0 24.816406 20.1875 45 45.003906 45 24.8125 0 45-20.183594 45-45 0-24.8125-20.1875-45-45-45-24.816406 0-45.003906 20.1875-45.003906 45zm0 0"/><path d="m362.003906 405.003906c0 24.816406 20.1875 45 45 45 24.816406 0 45-20.183594 45-45 0-24.8125-20.183594-45-45-45-24.8125 0-45 20.1875-45 45zm0 0"/></svg>

<svg width="513" height="451" viewBox="0 0 513 451" fill="none" xmlns="http://www.w3.org/2000/svg">
<path d="M166 300.004H437.004C443.715 300.004 449.602 295.566 451.418 289.121L511.422 79.1172C512.711 74.5898 511.828 69.7266 508.988 65.9648C506.145 62.2148 501.723 60 497.004 60H131.371L120.648 11.75C119.125 4.87891 113.031 0 106 0H15C6.71094 0 0 6.71094 0 15C0 23.293 6.71094 30 15 30H93.9609L148.129 273.75C132.191 280.68 121 296.543 121 315.004C121 339.816 141.188 360.004 166 360.004H437.004C445.297 360.004 452.004 353.297 452.004 345.004C452.004 336.715 445.297 330.004 437.004 330.004H166C157.738 330.004 151 323.281 151 315.004C151 306.727 157.738 300.004 166 300.004V300.004Z" fill="#D8EBB5"/>
<path d="M151 405.004C151 429.82 171.188 450.004 196.004 450.004C220.816 450.004 241.004 429.82 241.004 405.004C241.004 380.191 220.816 360.004 196.004 360.004C171.188 360.004 151 380.191 151 405.004Z" fill="#D8EBB5"/>
<path d="M362.004 405.004C362.004 429.82 382.191 450.004 407.004 450.004C431.82 450.004 452.004 429.82 452.004 405.004C452.004 380.191 431.82 360.004 407.004 360.004C382.191 360.004 362.004 380.191 362.004 405.004Z" fill="#D8EBB5"/>
</svg>
